X: 3
T: The Dawning Of The Day
R: barndance
M: 4/4
L: 1/8
K: Dmaj
|: DE |F2 F2 F2 EF | A2 A2 B2 AF | D2 E2 D2 C2 | D6 A2 |
B3 A2 Bc d2 | F3 E D3 F | A2 F2 d2 F2 | E6 A2 |
B2 BA B3 d | F3 E D2 F2 | A2 F2 d2 F2 | E6 DE |
F2 F2 F2 EF | A3 A B2 AF | D2 FE D2 C2 | D6 :|


Tune 1441	Setting 10192

